brandsearch/.development/src/assets/images/icons/icon-coffee-cup.svg

<svg width="60" height="60" viewBox="0 0 60 60" fill="none" xmlns="http://www.w3.org/2000/svg">
<g clip-path="url(#clip0)">
<path d="M46.249 23.7491H11.2481C9.18055 23.7491 7.49805 25.4316 7.49805 27.4992V29.9993C7.49805 38.9194 12.4257 47.0097 20.3558 51.1123C20.9684 51.4273 21.7233 51.1897 22.0409 50.5747C22.3559 49.9622 22.1183 49.2072 21.5033 48.8896C14.4082 45.2196 9.99807 37.9819 9.99807 29.9991V27.4991C9.99807 26.8091 10.5581 26.249 11.2481 26.249H46.249C46.939 26.249 47.4991 26.8091 47.4991 27.4991V29.9991C47.4991 37.9818 43.089 45.2195 35.9913 48.887C35.3763 49.2045 35.1388 49.9596 35.4538 50.5721C35.6763 51.0021 36.1138 51.2496 36.5663 51.2496C36.7613 51.2496 36.9563 51.2046 37.1387 51.1096C45.0715 47.0094 49.9991 38.9218 49.9991 29.999V27.499C49.9991 25.4316 48.3165 23.7491 46.249 23.7491Z" fill="#D0D2D8"/>
<path d="M46.249 23.7491H11.2481C9.18055 23.7491 7.49805 25.4316 7.49805 27.4992V29.9993C7.49805 38.9194 12.4257 47.0097 20.3558 51.1123C20.9684 51.4273 21.7233 51.1897 22.0409 50.5747C22.3559 49.9622 22.1183 49.2072 21.5033 48.8896C14.4082 45.2196 9.99807 37.9819 9.99807 29.9991V27.4991C9.99807 26.8091 10.5581 26.249 11.2481 26.249H46.249C46.939 26.249 47.4991 26.8091 47.4991 27.4991V29.9991C47.4991 37.9818 43.089 45.2195 35.9913 48.887C35.3763 49.2045 35.1388 49.9596 35.4538 50.5721C35.6763 51.0021 36.1138 51.2496 36.5663 51.2496C36.7613 51.2496 36.9563 51.2046 37.1387 51.1096C45.0715 47.0094 49.9991 38.9218 49.9991 29.999V27.499C49.9991 25.4316 48.3165 23.7491 46.249 23.7491Z" fill="#3692E4"/>
<path d="M57.4074 49.5198C57.2124 49.0524 56.7574 48.7473 56.2524 48.7473H1.25115C0.746178 48.7473 0.291128 49.0524 0.0961238 49.5198C-0.0988808 49.9873 0.00858271 50.5249 0.36613 50.8824L3.16873 53.6875C4.82381 55.34 7.01879 56.2501 9.35638 56.2501H48.1422C50.4798 56.2501 52.6774 55.3401 54.3349 53.6875L57.1375 50.8824C57.495 50.5249 57.6024 49.9873 57.4074 49.5198ZM52.5649 51.9199C51.3849 53.0999 49.8123 53.7499 48.1448 53.7499H9.35638C7.68888 53.7499 6.1163 53.0999 4.93632 51.9199L4.26634 51.2499H53.2349L52.5649 51.9199Z" fill="#D0D2D8"/>
<path d="M57.4074 49.5198C57.2124 49.0524 56.7574 48.7473 56.2524 48.7473H1.25115C0.746178 48.7473 0.291128 49.0524 0.0961238 49.5198C-0.0988808 49.9873 0.00858271 50.5249 0.36613 50.8824L3.16873 53.6875C4.82381 55.34 7.01879 56.2501 9.35638 56.2501H48.1422C50.4798 56.2501 52.6774 55.3401 54.3349 53.6875L57.1375 50.8824C57.495 50.5249 57.6024 49.9873 57.4074 49.5198ZM52.5649 51.9199C51.3849 53.0999 49.8123 53.7499 48.1448 53.7499H9.35638C7.68888 53.7499 6.1163 53.0999 4.93632 51.9199L4.26634 51.2499H53.2349L52.5649 51.9199Z" fill="#3692E4"/>
<path d="M57.5823 29.6519C54.2148 27.4868 48.8347 29.8369 48.2321 30.1094C47.6045 30.3968 47.3246 31.1369 47.612 31.7669C47.8995 32.3969 48.6371 32.6744 49.2696 32.387C50.4746 31.8394 54.3397 30.5419 56.2297 31.7594C57.0823 32.3069 57.4997 33.3695 57.4997 34.9995C57.4997 40.0046 47.4045 43.0297 43.5068 43.7747L42.6218 43.9496C41.9443 44.0822 41.5043 44.7396 41.6368 45.4172C41.7544 46.0122 42.2768 46.4247 42.8618 46.4247C42.9419 46.4247 43.0218 46.4172 43.1043 46.3997L43.9818 46.2272C44.6368 46.1022 59.9997 43.0897 59.9997 34.9995C59.9999 32.4845 59.1849 30.6869 57.5823 29.6519Z" fill="#D0D2D8"/>
<path d="M57.5823 29.6519C54.2148 27.4868 48.8347 29.8369 48.2321 30.1094C47.6045 30.3968 47.3246 31.1369 47.612 31.7669C47.8995 32.3969 48.6371 32.6744 49.2696 32.387C50.4746 31.8394 54.3397 30.5419 56.2297 31.7594C57.0823 32.3069 57.4997 33.3695 57.4997 34.9995C57.4997 40.0046 47.4045 43.0297 43.5068 43.7747L42.6218 43.9496C41.9443 44.0822 41.5043 44.7396 41.6368 45.4172C41.7544 46.0122 42.2768 46.4247 42.8618 46.4247C42.9419 46.4247 43.0218 46.4172 43.1043 46.3997L43.9818 46.2272C44.6368 46.1022 59.9997 43.0897 59.9997 34.9995C59.9999 32.4845 59.1849 30.6869 57.5823 29.6519Z" fill="#3692E4"/>
<path d="M38.4812 13.2789C40.5138 10.7388 40.5138 6.76126 38.4812 4.22116C38.0487 3.68115 37.2662 3.59115 36.7237 4.02616C36.1837 4.45871 36.0962 5.24365 36.5287 5.78366C37.8163 7.39116 37.8163 10.1088 36.5263 11.7213C34.4912 14.2614 34.4912 18.239 36.5263 20.7791C36.7738 21.0891 37.1362 21.2491 37.5037 21.2491C37.7762 21.2491 38.0537 21.1591 38.2838 20.9741C38.8238 20.5415 38.9113 19.754 38.4788 19.2166C37.1887 17.609 37.1887 14.8914 38.4812 13.2789Z" fill="#D0D2D8"/>
<path d="M38.4812 13.2789C40.5138 10.7388 40.5138 6.76126 38.4812 4.22116C38.0487 3.68115 37.2662 3.59115 36.7237 4.02616C36.1837 4.45871 36.0962 5.24365 36.5287 5.78366C37.8163 7.39116 37.8163 10.1088 36.5263 11.7213C34.4912 14.2614 34.4912 18.239 36.5263 20.7791C36.7738 21.0891 37.1362 21.2491 37.5037 21.2491C37.7762 21.2491 38.0537 21.1591 38.2838 20.9741C38.8238 20.5415 38.9113 19.754 38.4788 19.2166C37.1887 17.609 37.1887 14.8914 38.4812 13.2789Z" fill="#3692E4"/>
<path d="M30.9716 13.279C33.0066 10.7389 33.0066 6.76132 30.9716 4.22123C30.5416 3.68121 29.7541 3.59367 29.2141 4.02622C28.674 4.45877 28.5865 5.24629 29.0191 5.78372C30.3091 7.39122 30.3091 10.1089 29.0166 11.7214C26.9841 14.2615 26.9841 18.2391 29.0166 20.7792C29.2641 21.0891 29.6266 21.2492 29.9941 21.2492C30.2665 21.2492 30.5416 21.1592 30.7741 20.9742C31.3141 20.5416 31.4017 19.7567 30.9691 19.2167C29.6815 17.609 29.6815 14.8915 30.9716 13.279Z" fill="#D0D2D8"/>
<path d="M30.9716 13.279C33.0066 10.7389 33.0066 6.76132 30.9716 4.22123C30.5416 3.68121 29.7541 3.59367 29.2141 4.02622C28.674 4.45877 28.5865 5.24629 29.0191 5.78372C30.3091 7.39122 30.3091 10.1089 29.0166 11.7214C26.9841 14.2615 26.9841 18.2391 29.0166 20.7792C29.2641 21.0891 29.6266 21.2492 29.9941 21.2492C30.2665 21.2492 30.5416 21.1592 30.7741 20.9742C31.3141 20.5416 31.4017 19.7567 30.9691 19.2167C29.6815 17.609 29.6815 14.8915 30.9716 13.279Z" fill="#3692E4"/>
<path d="M23.4812 13.2814C25.5138 10.7413 25.5138 6.7637 23.4812 4.2236C23.0513 3.68359 22.2662 3.59359 21.7237 4.0286C21.1862 4.45857 21.0987 5.24609 21.5287 5.78364C22.8163 7.39114 22.8163 10.1088 21.5263 11.7213C19.4912 14.2614 19.4912 18.239 21.5263 20.7791C21.7738 21.089 22.1362 21.2491 22.5037 21.2491C22.7762 21.2491 23.0537 21.1591 23.2838 20.9767C23.8238 20.5441 23.9113 19.7566 23.4788 19.2191C22.1887 17.609 22.1887 14.8939 23.4812 13.2814Z" fill="#D0D2D8"/>
<path d="M23.4812 13.2814C25.5138 10.7413 25.5138 6.7637 23.4812 4.2236C23.0513 3.68359 22.2662 3.59359 21.7237 4.0286C21.1862 4.45857 21.0987 5.24609 21.5287 5.78364C22.8163 7.39114 22.8163 10.1088 21.5263 11.7213C19.4912 14.2614 19.4912 18.239 21.5263 20.7791C21.7738 21.089 22.1362 21.2491 22.5037 21.2491C22.7762 21.2491 23.0537 21.1591 23.2838 20.9767C23.8238 20.5441 23.9113 19.7566 23.4788 19.2191C22.1887 17.609 22.1887 14.8939 23.4812 13.2814Z" fill="#3692E4"/>
</g>
<defs>
<clipPath id="clip0">
<rect width="60" height="60" fill="white"/>
</clipPath>
</defs>
</svg>

<svg width="60" height="60" fill="none" xmlns="http://www.w3.org/2000/svg"><g clip-path="url(#clip0)"><path d="M46.25 23.75H11.248a3.755 3.755 0 00-3.75 3.75V30c0 8.92 4.927 17.01 12.857 21.112a1.252 1.252 0 001.148-2.222C14.409 45.22 9.999 37.982 9.999 30v-2.5c0-.69.56-1.25 1.25-1.25h35c.69 0 1.25.56 1.25 1.25V30c0 7.982-4.41 15.22-11.507 18.887a1.252 1.252 0 001.147 2.223C45.072 47.01 50 38.922 50 30v-2.5a3.755 3.755 0 00-3.75-3.75z" fill="#D0D2D8"/><path d="M46.25 23.75H11.248a3.755 3.755 0 00-3.75 3.75V30c0 8.92 4.927 17.01 12.857 21.112a1.252 1.252 0 001.148-2.222C14.409 45.22 9.999 37.982 9.999 30v-2.5c0-.69.56-1.25 1.25-1.25h35c.69 0 1.25.56 1.25 1.25V30c0 7.982-4.41 15.22-11.507 18.887a1.252 1.252 0 001.147 2.223C45.072 47.01 50 38.922 50 30v-2.5a3.755 3.755 0 00-3.75-3.75z" fill="url(#paint0_linear)"/><path d="M57.407 49.52a1.253 1.253 0 00-1.155-.773H1.251a1.253 1.253 0 00-.885 2.135l2.802 2.806a8.698 8.698 0 006.188 2.562h38.786c2.338 0 4.535-.91 6.193-2.563l2.802-2.805c.358-.357.465-.895.27-1.362zm-4.842 2.4a6.214 6.214 0 01-4.42 1.83H9.356c-1.667 0-3.24-.65-4.42-1.83l-.67-.67h48.969l-.67.67z" fill="#D0D2D8"/><path d="M57.407 49.52a1.253 1.253 0 00-1.155-.773H1.251a1.253 1.253 0 00-.885 2.135l2.802 2.806a8.698 8.698 0 006.188 2.562h38.786c2.338 0 4.535-.91 6.193-2.563l2.802-2.805c.358-.357.465-.895.27-1.362zm-4.842 2.4a6.214 6.214 0 01-4.42 1.83H9.356c-1.667 0-3.24-.65-4.42-1.83l-.67-.67h48.969l-.67.67z" fill="url(#paint1_linear)"/><path d="M57.582 29.652c-3.367-2.165-8.748.185-9.35.457a1.252 1.252 0 001.037 2.278c1.205-.548 5.07-1.845 6.96-.628.853.548 1.27 1.61 1.27 3.24 0 5.006-10.095 8.03-13.992 8.776l-.885.175a1.25 1.25 0 10.482 2.45l.878-.173c.654-.125 16.017-3.137 16.017-11.227 0-2.516-.814-4.313-2.417-5.348z" fill="#D0D2D8"/><path d="M57.582 29.652c-3.367-2.165-8.748.185-9.35.457a1.252 1.252 0 001.037 2.278c1.205-.548 5.07-1.845 6.96-.628.853.548 1.27 1.61 1.27 3.24 0 5.006-10.095 8.03-13.992 8.776l-.885.175a1.25 1.25 0 10.482 2.45l.878-.173c.654-.125 16.017-3.137 16.017-11.227 0-2.516-.814-4.313-2.417-5.348z" fill="url(#paint2_linear)"/><path d="M38.482 13.279c2.033-2.54 2.033-6.518 0-9.058a1.246 1.246 0 00-1.757-.195 1.249 1.249 0 00-.195 1.758c1.287 1.607 1.287 4.325-.003 5.937-2.035 2.54-2.035 6.518 0 9.058a1.245 1.245 0 001.758.195c.54-.433.627-1.22.195-1.757-1.29-1.608-1.29-4.326.002-5.938z" fill="#D0D2D8"/><path d="M38.482 13.279c2.033-2.54 2.033-6.518 0-9.058a1.246 1.246 0 00-1.757-.195 1.249 1.249 0 00-.195 1.758c1.287 1.607 1.287 4.325-.003 5.937-2.035 2.54-2.035 6.518 0 9.058a1.245 1.245 0 001.758.195c.54-.433.627-1.22.195-1.757-1.29-1.608-1.29-4.326.002-5.938z" fill="url(#paint3_linear)"/><path d="M30.972 13.279c2.035-2.54 2.035-6.518 0-9.058a1.248 1.248 0 00-1.758-.195 1.249 1.249 0 00-.195 1.758c1.29 1.607 1.29 4.325-.002 5.937-2.033 2.54-2.033 6.518 0 9.058a1.245 1.245 0 001.757.195c.54-.433.628-1.218.195-1.758-1.288-1.607-1.288-4.325.003-5.937z" fill="#D0D2D8"/><path d="M30.972 13.279c2.035-2.54 2.035-6.518 0-9.058a1.248 1.248 0 00-1.758-.195 1.249 1.249 0 00-.195 1.758c1.29 1.607 1.29 4.325-.002 5.937-2.033 2.54-2.033 6.518 0 9.058a1.245 1.245 0 001.757.195c.54-.433.628-1.218.195-1.758-1.288-1.607-1.288-4.325.003-5.937z" fill="url(#paint4_linear)"/><path d="M23.482 13.281c2.032-2.54 2.032-6.517 0-9.057a1.25 1.25 0 00-1.953 1.56c1.288 1.607 1.288 4.325-.002 5.937-2.035 2.54-2.035 6.518 0 9.058.247.31.61.47.977.47a1.249 1.249 0 00.975-2.03c-1.29-1.61-1.29-4.325.003-5.938z" fill="#D0D2D8"/><path d="M23.482 13.281c2.032-2.54 2.032-6.517 0-9.057a1.25 1.25 0 00-1.953 1.56c1.288 1.607 1.288 4.325-.002 5.937-2.035 2.54-2.035 6.518 0 9.058.247.31.61.47.977.47a1.249 1.249 0 00.975-2.03c-1.29-1.61-1.29-4.325.003-5.938z" fill="url(#paint5_linear)"/></g><defs><linearGradient id="paint0_linear" x1="28.749" y1="23.749" x2="28.749" y2="51.251" gradientUnits="userSpaceOnUse"><stop stop-color="#00AFEC"/><stop offset="1" stop-color="#307ABD"/></linearGradient><linearGradient id="paint1_linear" x1="28.752" y1="48.747" x2="28.752" y2="56.25" gradientUnits="userSpaceOnUse"><stop stop-color="#00AFEC"/><stop offset="1" stop-color="#307ABD"/></linearGradient><linearGradient id="paint2_linear" x1="50.806" y1="28.744" x2="50.806" y2="46.425" gradientUnits="userSpaceOnUse"><stop stop-color="#00AFEC"/><stop offset="1" stop-color="#307ABD"/></linearGradient><linearGradient id="paint3_linear" x1="37.504" y1="3.75" x2="37.504" y2="21.249" gradientUnits="userSpaceOnUse"><stop stop-color="#00AFEC"/><stop offset="1" stop-color="#307ABD"/></linearGradient><linearGradient id="paint4_linear" x1="29.995" y1="3.751" x2="29.995" y2="21.249" gradientUnits="userSpaceOnUse"><stop stop-color="#00AFEC"/><stop offset="1" stop-color="#307ABD"/></linearGradient><linearGradient id="paint5_linear" x1="22.503" y1="3.753" x2="22.503" y2="21.249" gradientUnits="userSpaceOnUse"><stop stop-color="#00AFEC"/><stop offset="1" stop-color="#307ABD"/></linearGradient><clipPath id="clip0"><path fill="#fff" d="M0 0h60v60H0z"/></clipPath></defs></svg>
